la/helicopter-solid.svg

<svg xmlns="http://www.w3.org/2000/svg" viewBox="0 0 32 32" height="1em" width="1em">
  <path d="M 18 6 L 18 10.0625 C 16.152344 10.222656 14.742188 10.785156 13.78125 11.46875 C 13.21875 11.871094 12.824219 12.316406 12.53125 12.71875 C 12.464844 12.808594 12.460938 12.917969 12.40625 13 L 5.8125 13 C 5.394531 11.84375 4.292969 11 3 11 C 1.355469 11 0 12.355469 0 14 C 0 15.644531 1.355469 17 3 17 C 4.292969 17 5.394531 16.15625 5.8125 15 L 14 15 L 14 14.15625 C 14.011719 14.105469 14.046875 13.980469 14.125 13.875 C 14.277344 13.664063 14.546875 13.371094 14.9375 13.09375 C 15.722656 12.535156 17.015625 12 19 12 C 19.449219 12 19.910156 12.15625 20.375 12.21875 C 19.851563 13.066406 19.6875 14.144531 19.6875 15.78125 C 19.6875 16.511719 19.9375 17.246094 20.46875 17.78125 C 21 18.316406 21.773438 18.625 22.625 18.625 C 24.640625 18.625 25.972656 18.550781 26.96875 18.375 C 27.054688 18.359375 27.074219 18.300781 27.15625 18.28125 C 27.113281 18.355469 27.117188 18.496094 27.0625 18.5625 C 26.792969 18.90625 26.390625 19.183594 25.8125 19.40625 C 24.65625 19.855469 22.902344 20 21.15625 20 L 16.21875 20 C 14.988281 20 14 19.011719 14 17.78125 L 14 16 L 12 16 L 12 17.78125 C 12 20.09375 13.90625 22 16.21875 22 L 21.15625 22 C 22.984375 22 24.90625 21.910156 26.53125 21.28125 C 27.34375 20.964844 28.105469 20.484375 28.65625 19.78125 C 29.207031 19.078125 29.5 18.164063 29.5 17.125 C 29.5 14.953125 27.933594 13.191406 25.9375 11.96875 C 25.175781 11.503906 24.285156 11.1875 23.40625 10.875 C 22.300781 10.480469 21.15625 10.179688 20 10.0625 L 20 6 Z M 7 7 L 7 9 L 17 9 L 17 7 Z M 21 7 L 21 9 L 31 9 L 31 7 Z M 23.0625 12.90625 C 23.6875 13.148438 24.339844 13.363281 24.875 13.6875 C 26.097656 14.433594 26.796875 15.304688 27.15625 16.1875 C 27 16.257813 26.992188 16.339844 26.625 16.40625 C 25.871094 16.539063 24.597656 16.625 22.625 16.625 C 22.210938 16.625 22.003906 16.507813 21.875 16.375 C 21.746094 16.242188 21.6875 16.054688 21.6875 15.78125 C 21.6875 14.078125 21.910156 13.308594 22.0625 13.125 C 22.136719 13.03125 22.207031 12.988281 22.40625 12.9375 C 22.535156 12.902344 22.816406 12.917969 23.0625 12.90625 Z M 3 13 C 3.5625 13 4 13.4375 4 14 C 4 14.5625 3.5625 15 3 15 C 2.4375 15 2 14.5625 2 14 C 2 13.4375 2.4375 13 3 13 Z M 28 22 C 28 22.566406 27.566406 23 27 23 L 11 23 L 11 25 L 27 25 C 28.644531 25 30 23.644531 30 22 Z"/>
</svg>

<svg xmlns="http://www.w3.org/2000/svg" viewBox="0 0 32 32" height="1em" width="1em">
  <path d="M18 6v4.063c-1.848.16-3.258.722-4.219 1.406a5.466 5.466 0 0 0-1.25 1.25c-.066.09-.07.199-.125.281H5.812C5.396 11.844 4.293 11 3 11c-1.645 0-3 1.355-3 3s1.355 3 3 3c1.293 0 2.395-.844 2.813-2H14v-.844a.8.8 0 0 1 .125-.281 3.56 3.56 0 0 1 .813-.781C15.723 12.535 17.015 12 19 12c.45 0 .91.156 1.375.219-.523.847-.688 1.926-.688 3.562 0 .73.25 1.465.782 2 .531.535 1.304.844 2.156.844 2.016 0 3.348-.074 4.344-.25.086-.016.105-.074.187-.094-.043.074-.039.215-.093.282-.27.343-.672.62-1.25.843-1.157.45-2.91.594-4.657.594H16.22A2.212 2.212 0 0 1 14 17.781V16h-2v1.781C12 20.094 13.906 22 16.219 22h4.937c1.828 0 3.75-.09 5.375-.719.813-.316 1.574-.797 2.125-1.5.551-.703.844-1.617.844-2.656 0-2.172-1.566-3.934-3.563-5.156-.761-.465-1.652-.781-2.53-1.094-1.106-.395-2.25-.695-3.407-.813V6ZM7 7v2h10V7Zm14 0v2h10V7Zm2.063 5.906c.625.242 1.277.457 1.812.781 1.223.747 1.922 1.618 2.281 2.5-.156.07-.164.153-.531.22-.754.132-2.027.218-4 .218-.414 0-.621-.117-.75-.25s-.188-.32-.188-.594c0-1.703.223-2.472.375-2.656.075-.094.145-.137.344-.188.13-.035.41-.019.657-.03ZM3 13c.563 0 1 .438 1 1 0 .563-.438 1-1 1-.563 0-1-.438-1-1 0-.563.438-1 1-1Zm25 9c0 .566-.434 1-1 1H11v2h16c1.645 0 3-1.355 3-3Z"/>
</svg>
